!!!OTL: SEHT DEN HIMMEL WIE HEITER
!!!ARE: Europa, Mitteleuropa, Deutschland
!!!SCT: B0205
!!!YEM: Copyright 1995, estate of Helmut Schaffrath.
**kern
*ICvox
*Ivox
*M6/8
*k[f#]
*G:
=1
{4dd
8dd
8dd
8b
8dd
=2
4.gg
4.dd}
=3
{4ee
8ee
8gg
8ff#
8ee
=4
4.dd
4.b}
=5
{8a
8b
8cc#
8dd
8ee
8ff#
=6
4.dd
4.r}
=7
{4dd
8cc
8b
8a
8g
=8
4.ee
4.cc}
=9
{4ee
8dd
8cc#
8b
8a
=10
4.ff#
4.dd}
=11
{4gg
8dd
8gg
8dd
8b
=12
8dd
8cc
8a
4g
8r}
==
!!!AGN: Jahreszeiten - Lied, Fruehling, Erotik
!!!ONB: ESAC (Essen Associative Code) Database: BOEHME
!!!AMT: compound duple
!!!AIN: vox
!!!EED: Helmut Schaffrath
!!!EEV: 1.0
*-
